apps/workflowengine/img/workflow-off.svg

<svg width="16" height="16" version="1.1" viewbox="0 0 16 16" xmlns="http://www.w3.org/2000/svg">
  <path d="M 3.0839844 3 C 2.0812854 3 1.25 3.8312754 1.25 4.8339844 L 1.25 7 L 1.0136719 7 C -0.33862677 6.980875 -0.33862677 9.0191 1.0136719 9 L 1.25 9 L 1.25 11.166016 C 1.25 12.168715 2.0812754 13 3.0839844 13 L 7.4160156 13 C 8.4187146 13 9.25 12.168725 9.25 11.166016 L 9.25 9 L 10.060547 9 L 7.75 6.6894531 L 7.75 11.166016 C 7.75 11.363655 7.6136554 11.5 7.4160156 11.5 L 3.0839844 11.5 C 2.8863446 11.5 2.75 11.363655 2.75 11.166016 L 2.75 4.8339844 C 2.75 4.6363446 2.8863446 4.5 3.0839844 4.5 L 5.5605469 4.5 L 4.0605469 3 L 3.0839844 3 z M 6.1816406 3 L 9.25 6.0683594 L 9.25 4.8339844 C 9.25 3.8312854 8.4187246 3 7.4160156 3 L 6.1816406 3 z M 11.5 3.5 C 10.602601 3.5 10.159605 4.5908975 10.802734 5.2167969 L 12.585938 7 L 10.181641 7 L 12.181641 9 L 12.585938 9 L 12.382812 9.203125 L 13.796875 10.617188 L 15.707031 8.7070312 C 16.094031 8.3192316 16.098031 7.6841684 15.707031 7.2929688 L 12.216797 3.8027344 C 12.028497 3.6092346 11.77 3.50002 11.5 3.5 z M 11.324219 10.261719 L 10.802734 10.783203 C 9.8211054 11.725712 11.274208 13.178865 12.216797 12.197266 L 12.738281 11.675781 L 11.324219 10.261719 z " />
  <path d="M 0,1.0606601 1.06066,0 16.00033,14.93967 14.93967,16.00033 Z" />
</svg>

<svg xmlns="http://www.w3.org/2000/svg" width="16" height="16"><path d="M3.084 3A1.847 1.847 0 0 0 1.25 4.834V7h-.236c-1.353-.02-1.353 2.02 0 2h.236v2.166c0 1.003.831 1.834 1.834 1.834h4.332a1.847 1.847 0 0 0 1.834-1.834V9h.81L7.75 6.69v4.476a.318.318 0 0 1-.334.334H3.084a.318.318 0 0 1-.334-.334V4.834c0-.198.136-.334.334-.334h2.477L4.06 3h-.977zm3.098 0L9.25 6.068V4.834A1.847 1.847 0 0 0 7.416 3H6.182zm5.318.5c-.897 0-1.34 1.09-.697 1.717L12.586 7h-2.404l2 2h.404l-.203.203 1.414 1.414 1.91-1.91a1.003 1.003 0 0 0 0-1.414l-3.49-3.49A1 1 0 0 0 11.5 3.5zm-.176 6.762-.521.521c-.982.943.471 2.396 1.414 1.414l.521-.521-1.414-1.414z"/><path d="M0 1.06 1.06 0 16 14.94 14.94 16Z"/></svg>
